!!!COM: Music21
!!!OTL: Jota dos Mariñeiros
!!!OMV: pezas_jotas_jota-dos-marineiros_jota-dos-marineiros-partitura.musicxml
**kern
*part1
*staff1
*I"Bagpipes
*I'Bag
*clefG^2
*k[]
*M3/4
=1
!LO:TX:a:t=Prestissimo
*MM220
!LO:TX:a:t=[quarter]=220
4r
8cccL
8bbJ
8aaL
8ggJ
=||
8aaL
8bbJ
8aaL
8ggJ
[4ccc
=
8cccL]
8ggJ
8cccL
8bbJ
8aaL
8ggJ
=
4.aa
8gg
[4ff
=
4ff]
8bbL
8aaJ
8ggL
8ffJ
=
8ggL
8aaJ
8ggL
8ffJ
[4bb
!!linebreak:original
=
8bbL]
8ffJ
8bbL
8aaJ
8ggL
8ffJ
!!linebreak:original
=
4.gg
8ff
[4ee
=
4ee]
8cccL
8bbJ
8aaL
8ggJ
=
8aaL
8bbJ
8aaL
8ggJ
[4ccc
=
8cccL]
8ggJ
8cccL
8bbJ
8aaL
8ggJ
=
4.aa
8gg
[4ff
=
4ff]
8bbL
8aaJ
8ggL
8ffJ
=
8ggL
8aaJ
8ggL
8ffJ
[4bb
!!linebreak:original
=
8bbL]
8aaJ
8ggL
8ffJ
8eeL
8ddJ
=
[2.cc
=
4cc]
8cccL
8bbJ
8aaL
8ggJ
=||
8aaL
8bbJ
8aaL
8ggJ
[4ccc
=
8cccL]
8ggJ
8cccL
8bbJ
8aaL
8ggJ
=
4.aa
8gg
[4ff
=
4ff]
8bbL
8aaJ
8ggL
8ffJ
!!linebreak:original
=
8ggL
8aaJ
8ggL
8ffJ
[4bb
=
8bbL]
8ffJ
8bbL
8aaJ
8ggL
8ffJ
!!pagebreak:original
=
4.gg
8ff
[4ee
=
4ee]
8cccL
8bbJ
8aaL
8ggJ
=
8aaL
8bbJ
8aaL
8ggJ
[4ccc
=
8cccL]
8ggJ
8cccL
8bbJ
8aaL
8ggJ
=
4.aa
8gg
[4ff
=
4ff]
8bbL
8aaJ
8ggL
8ffJ
=
8ggL
8aaJ
8ggL
8ffJ
[4bb
!!linebreak:original
=
8bbL]
8aaJ
8ggL
8ffJ
8eeL
8ddJ
=
[2.cc
=
2cc]
4dd
=||
4.ff
8ee
4ff
=
4gg
4aa
4bb
=
4.gg
8ff
[4ee
=
2ee]
4ee
=
4.gg
8ff
4gg
!!linebreak:original
=
4aa
4bb
4ccc
=
4.aa
8gg
[4ff
=
2ff]
4dd
=
4.ff
8ee
4ff
=
4gg
4aa
4bb
=
4.gg
8ff
[4ee
=
2ee]
4ee
=||
4.gg
8ff
4gg
=
4aa
4bb
4ccc
!!linebreak:original
=
4.aa
8gg
4ff
!!linebreak:original
=
4gg
4aa
4bb
=
4.aa
8gg
4bb
=
4aa
4gg
4ff
=
4.gg
8ff
[4ee
=
2ee]
4ee
=||
4.gg
8ff
4gg
=
4aa
4bb
4ccc
=
4.aa
8gg
4ff
!!linebreak:original
=
4gg
4aa
4bb
=
4.aa
8gg
4bb
=
4aa
4gg
4ff
=
[2.ee
=
4ee]
8cccL
8bbJ
8aaL
8ggJ
=||
4cc
8ccL
8eeJ
4gg
=
4ccc
2r
==
*-
!!!system-decoration: s1,s2
